X:26
T: DA DRUNTEN IM GARTEN
N: E0009
O: Europa, Mitteleuropa, Deutschland, Giessen
R: Sage, Maerchen -, Zauber - Lied
M: 6/8
L: 1/16
K: G
D2 | G2G2A2B2B2A2 | G6z4
A2 | A4B2c4B2 | A6z4
G2 | B2B2B2dccBA2 | A2A2d2BABAG2 |
G2G2A2B2B2dc | B4A2G4

@@@ Tune index: 3676
